!!!OTL: 1455. Der Gluecksjaeger.
!!!ARE: Europa, Mitteleuropa, Deutschland, Schwarzwald; Rheinland, Koeln
!!!SCT: E1455
!!!TXL: @@DE
!!!YEM: Copyright 1995, estate of Helmut Schaffrath.
**kern	**text
*ICvox	*
*M3/8	*
*k[f#c#g#]	*
*A:	*
=1	=1
!LO:TX:a:t=Bewegt.	!
!LO:TX:a:t=Mel. aus dem Schwarʒwald und der Gegend von Köln.	!
{8a	Es
8a	war
8a	ein
=2	=2
4cc#	Jä-
8a	-ger
=3	=3
8.cc#	wohl-
16b	-ge-
8g#	-muth
=4	=4
8.cc#	(wohl-
16b	-ge-
8g#}	-muth),
=5	=5
{8b	der
8b	trug'
8b	ne
=6	=6
8.ee	Fe-
16b	-der
8b	auf
=7	=7
8aL	ſei-
8g#J	.
8f#	-nem
=8	=8
4e	Hut,
8r}	.
=9	=9
{8dd^	Hei-
8dd	-raſ-
8dd	-ſa
=10	=10
8cc#	hop-
8cc#	-ſa-
8cc#	-ſa,
=11	=11
8b	vi
8b	und
8b	vi-
=12	=12
16aL	-val-
16g#	-le-
16a	-ralle-
16cc#J	.
8ee;}	-ra!
=13	=13
{8a	der
8a	trug
8a	'ne
=14	=14
8.cc#	Fe-
16b	-der
8a	auf
=15	=15
8cc#	ſei-
8b	.
8g#	-nem
=16	=16
4a	Hut.
8r}	.
==	==
!!!AGN: Staende -, Jaeger - Lied, Liebe
!!!ONB: ESAC (Essen Associative Code) Database: ERK3
!!!AMT: simple triple
!!!AIN: vox
!!!EED: Helmut Schaffrath
!!!EEV: 1.0
!!!GTL: Staendelieder (Berufslieder). 2. Jaegerlieder und Jaegerballaden.
!!!URL-scan: https://rosdok.uni-rostock.de/mcrviewer/recordIdentifier/rosdok_ppn745177999/iview2/phys_0320.iview2?x=-128.77276441889285&y=257.37328145839274&scale=0.5870222003877487&rotation=0&layout=singlePageLayout
!!!ENC: Anna Maria Matuszewska
!!!EEV: 2024/12/31
*-	*-
